images_sukapura_svg/res/savemodified_small.svg

<svg viewBox="0 0 16 16" xmlns="http://www.w3.org/2000/svg" xmlns:xlink="http://www.w3.org/1999/xlink"><linearGradient id="a"><stop offset="0" stop-color="#4f4f4f"/><stop offset=".88235295" stop-color="#4f4f4f" stop-opacity=".498039"/><stop offset="1" stop-color="#b7b7b7"/></linearGradient><filter id="b" color-interpolation-filters="sRGB" height="1.071" width="2.278" x="-.639" y="-.0355"><feGaussianBlur stdDeviation=".26625"/></filter><linearGradient id="c" gradientUnits="userSpaceOnUse" x1="9" x2="9" y1="15" y2="10"><stop offset="0" stop-color="#dadada"/><stop offset=".5" stop-color="#fff"/><stop offset="1" stop-color="#fff"/></linearGradient><linearGradient id="d" gradientTransform="matrix(1 0 0 .77777778 -5.5 -1.333333)" gradientUnits="userSpaceOnUse" x1="21" x2="21" xlink:href="#a" y1="20" y2="3"/><linearGradient id="e" gradientUnits="userSpaceOnUse" x1="15" x2="15" xlink:href="#a" y1="18" y2="1"/>




     /&amp;amp;gt;
 <path d="m1 0c-.554 0-1 .446-1 1v12l3.1992188 3h8.5703122a3 3 0 0 1 -.769531-2 3 3 0 0 1 3-3 3 3 0 0 1 2 .767578v-10.767578c0-.554-.446-1-1-1z" fill="#3e3e3e"/><g fill="#fff"><rect height="6" ry=".280908" width="12" x="2" y="1"/><path d="m4.5 10c-.554 0-1 .446-1 1v3c0 .554.4469243 1.031989 1 1h1v-4h2v4h3.675781a2.9986498 2.9986498 0 0 1 -.173828-1 2.9986498 2.9986498 0 0 1 1.998047-2.824219v-.175781c0-.554-.446-1-1-1z" fill="url(#c)"/></g><path d="m5.5 11h2v1h-2z"/><path d="m14.5 1v10.046875a2.9986498 2.9986498 0 0 1 1 .361328v-10.408203z" fill="url(#d)" filter="url(#b)"/><path d="m14 1h1.237288v13.5h-1.237288z" fill="url(#e)" filter="url(#b)" transform="matrix(1 0 0 .77777778 -13.237288 .222222)"/><path d="m4 5h8v1h-8z" fill="#bababa"/><path d="m4 3h8v1h-8z" fill="#bababa"/><path d="m4 1h8v1h-8z" fill="#0a84ff"/><circle cx="14" cy="14" fill="#ff9f0a" r="2"/></svg>

<?xml version="1.0" encoding="UTF-8" standalone="no"?>
<svg
   xmlns:dc="http://purl.org/dc/elements/1.1/"
   xmlns:cc="http://creativecommons.org/ns#"
   xmlns:rdf="http://www.w3.org/1999/02/22-rdf-syntax-ns#"
   xmlns:svg="http://www.w3.org/2000/svg"
   xmlns="http://www.w3.org/2000/svg"
   xmlns:xlink="http://www.w3.org/1999/xlink"
   xmlns:sodipodi="http://sodipodi.sourceforge.net/DTD/sodipodi-0.dtd"
   xmlns:inkscape="http://www.inkscape.org/namespaces/inkscape"
   viewBox="0 0 16 16"
   version="1.1"
   id="svg10"
   sodipodi:docname="savemodified_small.svg"
   inkscape:export-filename="/home/rizmut/Dokumen/Rizmut/Github/libreoffice-style-colibrex/images_colibrex/res/savemodified_small.png"
   inkscape:export-xdpi="96"
   inkscape:export-ydpi="96"
   inkscape:version="0.92.3 (unknown)"><metadata
   id="metadata16">
  <rdf:RDF>
    <cc:Work
       rdf:about="">
      <dc:format>image/svg+xml</dc:format>
      <dc:type
         rdf:resource="http://purl.org/dc/dcmitype/StillImage" />
      <dc:title></dc:title>
    </cc:Work>
  </rdf:RDF>
</metadata>
<defs
   id="defs14">
  <linearGradient
     inkscape:collect="always"
     id="linearGradient830">
    <stop
       style="stop-color:#dadada;stop-opacity:1"
       offset="0"
       id="stop826" />
    <stop
       id="stop834"
       offset="0.5"
       style="stop-color:#ffffff;stop-opacity:1;" />
    <stop
       style="stop-color:#ffffff;stop-opacity:1"
       offset="1"
       id="stop828" />
  </linearGradient>
  <linearGradient
     id="linearGradient956"
     inkscape:collect="always">
    <stop
       id="stop950"
       offset="0"
       style="stop-color:#4f4f4f;stop-opacity:1;" />
    <stop
       style="stop-color:#4f4f4f;stop-opacity:0.49803922;"
       offset="0.88235295"
       id="stop952" />
    <stop
       id="stop954"
       offset="1"
       style="stop-color:#b7b7b7;stop-opacity:1" />
  </linearGradient>
  <filter
     inkscape:collect="always"
     style="color-interpolation-filters:sRGB"
     id="filter897"
     x="-0.639"
     width="2.2780001"
     y="-0.035500001"
     height="1.071">
    <feGaussianBlur
       inkscape:collect="always"
       stdDeviation="0.26625"
       id="feGaussianBlur899" />
  </filter>
  <linearGradient
     inkscape:collect="always"
     xlink:href="#linearGradient830"
     id="linearGradient901"
     x1="9"
     y1="15"
     x2="9"
     y2="10"
     gradientUnits="userSpaceOnUse" />
  <linearGradient
     inkscape:collect="always"
     xlink:href="#linearGradient956"
     id="linearGradient920"
     gradientUnits="userSpaceOnUse"
     gradientTransform="matrix(1,0,0,0.77777778,-5.5,-1.3333333)"
     x1="21"
     y1="20"
     x2="21"
     y2="3" />
  <linearGradient
     inkscape:collect="always"
     xlink:href="#linearGradient956"
     id="linearGradient924"
     gradientUnits="userSpaceOnUse"
     gradientTransform="translate(-6,-2)"
     x1="21"
     y1="20"
     x2="21"
     y2="3" />
</defs>
<sodipodi:namedview
   pagecolor="#ffffff"
   bordercolor="#666666"
   borderopacity="1"
   objecttolerance="10"
   gridtolerance="10"
   guidetolerance="10"
   inkscape:pageopacity="0"
   inkscape:pageshadow="2"
   inkscape:window-width="1366"
   inkscape:window-height="706"
   id="namedview12"
   showgrid="true"
   showguides="true"
   inkscape:zoom="11.313709"
   inkscape:cx="12.958703"
   inkscape:cy="-0.75114342"
   inkscape:window-x="0"
   inkscape:window-y="0"
   inkscape:window-maximized="1"
   inkscape:current-layer="svg10">
  <inkscape:grid
     type="xygrid"
     id="grid823"
     spacingx="0.5"
     spacingy="0.5"
     empspacing="2" />
</sodipodi:namedview>




     /&amp;gt;
 <path
   style="fill:#3e3e3e;fill-opacity:1"
   d="M 1 0 C 0.446 0 0 0.446 0 1 L 0 13 L 3.1992188 16 L 11.769531 16 A 3 3 0 0 1 11 14 A 3 3 0 0 1 14 11 A 3 3 0 0 1 16 11.767578 L 16 1 C 16 0.446 15.554 0 15 0 L 1 0 z "
   id="rect2" />
<g
   fill="#fff"
   id="g8">
  <rect
     height="6"
     ry="0.28090835"
     width="12"
     x="2"
     y="1"
     id="rect4" />
  <path
     style="fill:url(#linearGradient901);fill-opacity:1"
     d="M 4.5 10 C 3.946 10 3.5 10.446 3.5 11 L 3.5 14 C 3.5 14.554 3.9469243 15.031989 4.5 15 L 5.5 15 L 5.5 11 L 7.5 11 L 7.5 15 L 11.175781 15 A 2.9986498 2.9986498 0 0 1 11.001953 14 A 2.9986498 2.9986498 0 0 1 13 11.175781 L 13 11 C 13 10.446 12.554 10 12 10 L 4.5 10 z "
     id="path6" />
</g>
<path
   style="opacity:1;fill:#000000;fill-opacity:1;stroke:none;stroke-width:7;stroke-miterlimit:4;stroke-dasharray:none;stroke-opacity:1"
   d="m 5.5,11 h 2 v 1 h -2 z"
   id="rect903"
   inkscape:connector-curvature="0"
   sodipodi:nodetypes="ccccc" />
<path
   style="opacity:1;fill:url(#linearGradient920);fill-opacity:1;stroke:none;stroke-width:0.88191712;stroke-linecap:square;stroke-linejoin:round;stroke-miterlimit:4;stroke-dasharray:none;stroke-dashoffset:0;stroke-opacity:1;filter:url(#filter897)"
   d="M 14.5 1 L 14.5 11.046875 A 2.9986498 2.9986498 0 0 1 15.5 11.408203 L 15.5 1 L 14.5 1 z "
   id="rect918" />
<rect
   transform="matrix(1,0,0,0.77777778,-13.237288,0.22222222)"
   y="1"
   x="14"
   height="13.5"
   width="1.237288"
   id="rect922"
   style="opacity:1;fill:url(#linearGradient924);fill-opacity:1;stroke:none;stroke-width:1;stroke-linecap:square;stroke-linejoin:round;stroke-miterlimit:4;stroke-dasharray:none;stroke-dashoffset:0;stroke-opacity:1;filter:url(#filter897)" />
<rect
   style="opacity:1;fill:#bababa;fill-opacity:1;stroke:none;stroke-width:7;stroke-miterlimit:4;stroke-dasharray:none;stroke-opacity:1"
   id="rect929"
   width="8"
   height="1"
   x="4"
   y="5" />
<rect
   y="3"
   x="4"
   height="1"
   width="8"
   id="rect931"
   style="opacity:1;fill:#bababa;fill-opacity:1;stroke:none;stroke-width:7;stroke-miterlimit:4;stroke-dasharray:none;stroke-opacity:1" />
<rect
   style="opacity:1;fill:#0a84ff;fill-opacity:1;stroke:none;stroke-width:7;stroke-miterlimit:4;stroke-dasharray:none;stroke-opacity:1"
   id="rect933"
   width="8"
   height="1"
   x="4"
   y="1" />
<circle
   style="fill:#ff9f0a;fill-opacity:1"
   cx="14"
   cy="14"
   r="2"
   id="circle8" />
</svg>
